X: 7207
T: Cissie's
R: reel
M: 4/4
K: Aminor
|:aee/e/d e/e/ede|eff/f/f ^g/f/e ge|^gaed e/e/ede|e/e/dcB AaaA|
aee/e/d e/e/ede|eff/f/f ^g/f/e ge|^gaed e/e/ede|1 e/e/dcB AaaA:|2 e/e/dcB A2 A/A/G||
|:EAB/A/G ABcA|BFF/F/F AEE/E/E|EAA/A/G ABcA|_E2 EG D2 {B}AG|
EAB/A/G ABcA|BFF/F/F AEE/E/E|EG/A/cd edcA|1 dcAG A_BAG:|2 dcAG AaaA||

